X: 130475
T: Mysteries of Knock
S: "Treoir" 32/2
Z: B.Black
R: jig
M: 6/8
L: 1/8
K: D
B | ADD AGF | ADD AdB | ADD AGF | BGE EdB |
ADD AGF | ADD ABc | dcB AGF | BGE E2 :|
B | AFF dFF | AFF AdB | AFF dFF | BGE EdB |
AFF dFF | AFF ABc | dcB AGF | BGE E2 :|
